X:1
T:Fors seullement
T:Fors seullement
T:Josquin Baston
C:Josquin Baston
%%score [ 1 2 [ 3 4 ] ]
L:1/8
Q:1/4=120
M:2/2
K:C
V:1 treble nm="Soprano" snm="S"
V:2 treble nm="Alto" snm="A"
V:3 treble-8 nm="Tenor 1" snm="T 1"
V:4 treble-8 nm="Tenor 2" snm="T 2"
V:1
 z8 | z4 A4 | A2 A2 c2 c2 | d2 f4 ed | e2 e4 e2 | A2 A3 GAB | c6 A2 | c2 B3 A A2- | A2 G2 A4- | %9
w: |Fors|seul- le- ment ri-|gueur, tor- * *|ment à mon|cueur nulz _ _ _|ne don-|ne'ad- dres- * *|* * se,|
 A8- | A4 z4 | A4 A2 A2 | c2 c2 d2 f2- | f2 ed e2 e2- | e2 e2 A2 A2- | AGAB c4- | c2 A2 c2 B2- | %17
w: _||n'aul- cu- ne-|ment con- ten- te-|* * * ment ou-|* yr ne puis|_ _ _ _ _|* de ma mais-|
 BA A4 G2 | A4 z4 | A4 B2 c2 | d4 z2 A2 | B3 c d2 d2 | d2 c2 B2 A2- | AGFE FG A2 | D2 d4 c2 | %25
w: * * tres- *|se,|Je vis en|dueil, Je|vis en dueil et|en tris- tes- *||se, en tris-|
"^b" B2 A2 A4 | z8 | z2 c2 d2 f2 | f2 e2 f4- | f2 e2 d4 | c2 e2 d2 B2 | c4 B2 A2- | AGFE DEFG | %33
w: tes- * se,||sans es- tre'aul-|cu- ne- ment|_ heu- *|reulx en ung lieu|où suis a-||
 ABcd ef e2- | ed d4 c2 | d4 z4 | z2 e2 d2 B2 | c4 B2 A2- | AGFE DEFG | ABcd ef e2- | e2 d4 c2 | %41
w: |* * * mou-|reulx,|en ung lieu|où suis a-|||* * mou-|
 d8 |] %42
w: reulx.|
V:2
 E4 C2 A,2 | E2 A,2 A,2 A,2 | C4 z2 A2 | A6 B2 | c2 E2 E2 A,B, | CDEC F2 EC | C4 z2 E2- | %7
w: Fors seul- le-|ment, fors seul- le-|ment ri-|gueur, tor-|* ment, [tor- * *||ment,] à|
 E2 E2 A,4 | E3 D E2 C2 | E2 F2 E4 | A,4 z2 D2 | D2 D2 F3 G | A2 A2 A4- | A2 B2 c2 E2 | %14
w: _ mon cueur|nulz _ _ ne|don- ne'ad- dres-|se, n'aul-|cu- ne- ment _|_ con- ten-|* te- ment ou-|
 E2 A,B, CDEC | F2 ED C4 | E3 D C2 D2 | F2 D2 E2 E2- | E2 F2 G2 A2- | AGFE D2 E2 | F2 G2 A4 | %21
w: yr ne _ _ _ _ _|puis _ _ de|ma _ _ mais-|tres- * se, Je|_ vis en dueil,|_ _ _ _ _ je|vis en dueil|
"^b" z2 G2 B2 A2- | AGEF G2 E2 | D2 A3 G E2 | F2 D2 z2 C2 | D2 F2 F2 E2 | F4 z2 G2 | A2 c2 c2 B2 | %28
w: et en tris-|* * * * tes- *||* se, sans|es- tre'aul- cu- ne-|ment, sans|es- tre'aul- cu- ne-|
 c3 B AGAG | FE A4 G2 | A4 z4 | A4 G2 E2 | F2 DE FG A2- | A2 A2 G3 A | B2 G2 A4 | z2 F2 G2 A2 | %36
w: ment _ _ _ _ _|_ _ _ heu-|reulx|en ung lieu|où suis _ _ _ a-|* mou- reulx _|_ _ _|en ung lieu|
 D2 E2 F2 G2 | A2 A2 G2 E2 | F2 DE FG A2- | A2 A2 G3 A | B2 G2 A4- | A8 |] %42
w: où suis a- *|* mou- reulx, en|ung lieu _ _ _ où|_ suis a- *|* mou- reulx.|_|
V:3
 A4 A2 A2 | c2 c2 d2 f2- | f2 ed e2 e2 | f6 f2 | g4 z2 e2 | e2 A2 z2 e2- | e2 e2 A2 A2- | %7
w: Fors seul- le-|ment ri- gueur, tor-|* * * ment, ri-|gueur, tor-|ment à|mon cueur, à|_ mon ceur nulz|
 A2 B2 c2 d2 | B4 A4 | z2 A2 A2 A2 | c2 c2 d4 | f6 ed | e2 e2 f4- | f2 f2 g4 | z2 e2 e2 A2 | %15
w: _ ne don- ne'ad-|dres- se,|n'aul- cu- ne-|ment con- ten-|te- * *|ment, con- ten-|* te- ment|ou- yr ne|
 d2 e4 d2 | A2 A4 B2 | c2 A2 B4 | A2 c2 d2 e2 | f6 e2 | d2 d2 e2 f2 | g2 g2 g2 f2 | e4 d2 e2 | %23
w: puis, ou- yr|ne puis de|ma mais- tres-|se, de ma mais-|tres- *|se, Je vis en|dueil et en tris-|tes- * *|
 f4 z2 c2 | d2 f2 f2 e2 | f3 e d2 c2 |"^b" B4 A2 c2 | f2 a4 gf | g4 f4- | f2 c2 d2 d2 | %30
w: se, sans|es- tre'aul- cu- ne-|ment _ _ heu-|reulx _ _|_ _ _ _||* en ung lieu|
 e2 c2 d2 e2 | A3 A B2 c2 | defg a3 g | f2 e3 d g2- | gfed e4 | defd e4 | z2 c2 d2 e2 | %37
w: où suis a- *|* mou- reulx _|_ _ _ _ _ _||||en ung lieu|
 A3 A B2 c2 | defg a3 g | f2 e3 d g2- | gfed e4 | d8 |] %42
w: où suis a- *|||* * * * mou-|reulx.|
V:4
 z8 | A4 F2 D2 | A6 A2 | d6 d2 | c4 A4- | A2 A2 D2 A2- | AGAB c3 B | A2 G2 F4 | E4 z2 A2 | %9
w: |Fors seul- le-|ment ri-|gueur, tor-|ment à|_ mon cueur nulz|_ _ _ _ _ ne|don- ne'ad- dres-|se, n'aul-|
 A2 A2 c3 d | e2 e2 f3 e | dc d4 d2 | A2 A2 d4- | d2 d2 c4 | A6 A2 | D2 A3 GAB | c3 B A2 G2 | %17
w: cu- ne- ment _|_ con- ten- *|* * * te-|ment, con- ten|_ te- ment|ou- yr|ne puis _ _ _|_ de ma mais-|
 F4 E4 | z2 A2 B2 c2 | d2 d2 d2 c2 | _B4 A4 | z8 |"^b" A4 B2 c2 | d2 d2 d2 c2 |"^b" B4 A4 | %25
w: tres- se,|Je vis en|dueil et en tris-|tes- se,||Je vis en|dueil et en tris-|tes- se,|
 z4 z2 c2 | d2 f2 f2 e2 | f3 e d4 | c4 F3 G | ABcA B4 | A4 z4 | F4 G2 A2 | D2 D2 D3 E | %33
w: sans|es- tre'aul- cu- ne-|ment _ _|heu- reulx _|_ _ _ _ _||en ung lieu|où suis a- *|
 FGAB c3 B/A/ | G2 B2 A4 | D2 d2 c2 A2 | _B2 A2 z4 | F4 G2 A2 | D2 D2 D3 E | FGAB c3 B/A/ | %40
w: |||mou- reulx,|en ung lieu|où suis a- *||
 G2 B2 A4 | D8 |] %42
w: * * mou-|reulx.|

